X: 60
M:C|
L:1/8
K:A
uF2|(E>"4"e)(c>A) "_Segue"E>dB>G|E>ec>A E>dB>G|\
E>"4"ec>A E>dB>G|E>"4"ec>A E>dB>A|\
|:((3"4"uAG"4"A)|(B>.E)(c>.E) "_Segue"d>Ec>E|B>cB>"0"A "4"A>GF>E|\
E>"4"ec>A E>dB>G|E>"4"ec>A E>dB>A|\


